X:86
T:Russian Dance,The. RH.086
R:Country Dance
S:Rev.R.Harrison’s MS,c1815,Cumbria
N:Makes a good polka, rant or reel.
O:England
A:Temple Sowerby,Cumbria
Z:vmp.Simon Wilson. Review PJH, 2008.
M:2/4
L:1/8
Q:1/4=180
K:G
|:DG|B2 DG|B2 DB|cd Bc|A2 DF|\
A2 DF|A2 DA|Bc AB|G2:|!
|:dc|B2 BA|G2 gf|e2 e2|e2 cB|\
A2 AG|EA dF|GF GF|G2:|

